X:1
T:Fair Phyllis I Saw
T:Fair Phyllis I Saw 
T:(G-major)
T:John Farmer
C:John Farmer
%%score 1 2 3 4
L:1/8
Q:1/2=110
M:4/4
K:G
V:1 treble nm="Sopran" snm="S."
V:2 treble nm="Alt" snm="A."
V:3 treble-8 nm="Tenor" snm="T."
V:4 bass nm="Bass" snm="B."
V:1
!p!"^Moderate speed" G8 |:!<(! B3 c d2 d2!<)! |[M:3/2]!>(! c2 B2 A2 G2 d4!>)! | %3
w: Fair|Phyl- lis I saw|sit- ting all a- lone|
[M:5/4]!p!!<(! d3 d d2 e4!<)! |!>(! d2 c2 B2 A2 A2!>)! |1[M:4/4] B4 z2 G2 :|2 B4 z2!mf! G2 || %7
w: feed- ing her flock|near to the mount- ain|side, fair|side: the|
 d3 d B2 Bd | c2 B2 AGAA | B4 z4 | z8 | G2 Bc d2 d2- | dA d2 d4 | B2!p! B2 d2 Be | d2 B2 z4 | %15
w: shep- herds knew not, they|knew not whi- ther she was|gone,||but af- ter her lov-|* er, her lov-|er, but af- ter her|lov- er|
 z2 d2 d2 ^c2 | d8 |: z4 z2!f! ed | c3 B A2 G2 | z2 ed c3 B | A2 G2 z4 | z2"^dim" d4 A2 | %22
w: A- myn- tas|hied,|up and|down he wan- dered,|up and down he|wan- dered|up and|
 F3 G A2 A2 | z2!p! dd A2 B2 | F2 G2 Ac B2 | A2 G4 F2 | G4 z4 | z2!<(! B2 B2 ^c2!<)! | %28
w: down he wan- dered,|up and down he|wan- dered, up and down|he wan- *|dered,|whilst she was|
!>(! d2 A2!>)!!f! B4 | A4 G4 | F8 ||[M:3/4] z6 | z6 |[M:4/4] z4!p! d4 |[M:3/4] e4 d2 | c2 A4 | %36
w: miss- ing, when|he found|her,|||oh|then they|fell a|
"^cresc." B3 c d2 | d3 c!f! B2 | A4 G2 | G2 F4 |1[M:4/4] G2 G2 z4 :|2[M:4/4] G4 G4 |] %42
w: kiss- ing a|kiss- ing, oh|then they|fell a|kiss- ing,|kiss- ing.|
V:2
 z8 |: z8 |[M:3/2] z12 |[M:5/4]!p!!<(! G3 G G2 G4!<)! |!>(! G2 GG G4 F2!>)! |1[M:4/4] G8 :|2 G8 || %7
w: |||Feed- ing her flock|near to the mount- ain|side,|side:|
 z2!mf! D2 G3 G | E2 G2 FEFF | G4 z4 | z4 z2 G2 | Bc d2 B2 G2- | G2 F2 G4 | G2!p! G2 B2 Gc | %14
w: the shep- herds|knew not whi- ther she was|gone,|but|af- ter her lo- ver,|* her lo-|ver, but af- ter her|
 B2 G2 z4 | z2 G2 A3 G | F4 z4 |: z2!f! GF E4 | z2 ed c3 B | A2 G2 z2 ed | c3 B A2 G2 | %21
w: lov- er|A- myn- tas|hied,|up and down|up and down he|wan- dered, up and|down he wan- *|
 F4 z2"^dim" d2- | d2 A2 F3 G | A2 A2 z2!p! dd | A2 B2 F2 G2 | F2 D2 D4 | D4 z4 | %27
w: dered, up|* and down he|wan- dered, up and|down he wan- *|dered, he wan-|dered,|
 z2!<(! G2 G2 E2!<)! |!>(! D2 D2!>)! z2!f! E2- | ED D2- D2 ^C2 | D4 A4 ||[M:3/4] B4 A2 | G2 E4 | %33
w: whilst she was|miss- ing, when|* he found * *|her, oh|then they|fell a|
[M:4/4] F2 F2!p! A4 |[M:3/4] A2 G4 | A2 F4 |"^cresc." G3 A B2 | B3 A!f! G2 | F4 D2 | E2 D4 |1 %40
w: kiss- ing, oh|then they|fell a|kiss- ing a|kiss- ing, oh|then they|fell a|
[M:4/4] D4 D4 :|2[M:4/4] D4 D4 |] %42
w: kiss- ing.|kiss- ing.|
V:3
 z8 |: z8 |[M:3/2] z12 |[M:5/4]!p!!<(! B3 B B2 c4!<)! |!>(! d2 ee d4 d2!>)! |1[M:4/4] d8 :|2 d8 || %7
w: |||Feed- ing her flock|near to the mount- ain|side,|side:|
 z8 | z2!mf! G2 d3 d | B2 Bd c2 B2 | ABcA B4 | z2 G2 Bc d2 | d2 AA B4 | d4 z4 | z2!p! B2 d2 Be | %15
w: |the shep- herds|knew not, they knew not|whi- ther she was gone,|but af- ter her|lov- er, her lov-|er,|but af- ter her|
 dB d2 e2 e2 | d2!f! dc B3 A |: G4 G2 gf | e4 z2 ed | c3 B A2 G2 | z2 ed c3 B | A4 F4 | %22
w: lov- er A- myn- tas|hied, up and down he|wan- dered, up and|down, up and|down he wan- dered,|up and down he|wan- dered,|
 z2"^dim" d4 A2 | F3 G A2 F2 | z2!p! dd AABG | AcBB A4 | G2!<(! d2 e2 f2!<)! |!>(! g2 d2!>)! z4 | %28
w: up and|down he wan- dered,|up and down he wan- dered,|up and down he wan-|dered, whilst she was|miss- ing,|
 z4 z2!f! B2 | d2 A2 B2 AG | A4 d4 ||[M:3/4] d4 d2 | e2 ^c4 |[M:4/4] d2 A2!p! A4 |[M:3/4] c4 d2 | %35
w: when|he found * * *|her, oh|then they|fell a|kiss- ing, oh|then they|
 e2 d4 |"^cresc." d3 c B2 | d2 d2!f! d2 | d4 B2 | c2 A4 |1[M:4/4] BBdc B3 A :|2[M:4/4] B4 B4 |] %42
w: fell a|kiss- ing a|kiss- ing, oh|then they|fell a|kiss- ing, up and down he|kiss- ing.|
V:4
 z8 |: z8 |[M:3/2] z12 |[M:5/4]!p!!<(! G,3 G, G,2 C,4!<)! |!>(! B,,2 C,2 G,,2 D,2 D,2!>)! |1 %5
w: |||Feed- ing her flock|near to the mount- ain|
[M:4/4] G,8 :|2 G,8 || z8 | z4 z2!mf! D,2 | G,3 G, E,2 G,2 | F,G,A,F, G,4 | z4 G,,2 B,,C, | %12
w: side,|side:||the|shep- herds knew not|whi- ther she was gone,|but af- ter|
 D,4 G,4- | G,2 G,,2 z4 | z2!p! G,2 B,2 G,C | B,G, B,2 A,2 A,2 | D,4 z2!f! G,F, |: E,3 D, C,4- | %18
w: her lov-|* er,|but af- ter her|lov- er A- myn- tas|hied, up and|down he wan-|
 C,2 C,2 C,4 | C,8 | C,8 | D,8 | D,8 | D,8 | D,8 | D,8 | G,,2!<(! G,2 C2 A,2!<)! | %27
w: * dered, he|wan-|dered,|up|and|down|he|wan-|dered, whilst she was|
!>(! G,2 G,2!>)! z4 | z4!f! G,4 | F,4 E,4 | D,4 D,4 ||[M:3/4] G,4 F,2 | E,2 A,4 | %33
w: miss- ing,|when|he found|her, oh|then they|fell a|
[M:4/4] D,2 D,2!p! D,4 |[M:3/4] C,4 B,,2 | A,,2 D,4 |"^cresc." G,,2 G,,2 G,,2 | G,2 G,2!f! G,2 | %38
w: kiss- ing, oh|then they|fell a|kiss- ing a|kiss- ing, oh|
 D,4 G,2 | C,2 D,4 |1[M:4/4] G,,4 G,,2 G,F, :|2[M:4/4] G,,4 G,,4 |] %42
w: then they|fell a|kiss- ing, up and|kiss- ing.|

